src/components/content2/img.svg

<svg viewBox="0 0 434 316" fill="none" xmlns="http://www.w3.org/2000/svg"><g clip-path="url(#a)"><path d="M89.5852 137.381c-21.9717.111-39.8558.467-39.8558.467s21.2581-30.905 39.7761-19.455c18.5185 11.45 39.7905 19.053 39.7905 19.053s-17.739-.176-39.7108-.065Z" fill="#F2F2F2"/><path d="M335.446 146.848c2.497 0 4.521-2.238 4.521-5 0-2.761-2.024-5-4.521-5s-4.521 2.239-4.521 5c0 2.762 2.024 5 4.521 5Z" fill="#FF6584"/><path d="m301.982 221.163 34.347-43.621 1.06 1.021-34.347 43.621-1.06-1.021Z" fill="#3D563E"/><path d="M337.254 185.848c3.995 0 7.233-3.581 7.233-8 0-4.418-3.238-8-7.233-8-3.995 0-7.233 3.582-7.233 8 0 4.419 3.238 8 7.233 8ZM315.813 204.848s13.887-19.572-3.875-33l3.875 33ZM85.5143 239.253c25.4507 52.191 79.4657 74.595 79.4657 74.595s12.752-62.213-12.698-114.404c-25.451-52.191-79.4666-74.596-79.4666-74.596s-12.7518 62.214 12.6989 114.405Z" fill="#3D563E"/><path d="M102.733 222.308c45.94 30.657 63.634 91.549 63.634 91.549s-56.792 11.188-102.7328-19.469C17.6933 263.732 0 202.84 0 202.84s56.7916-11.188 102.733 19.468Z" fill="#434711"/><path d="M284.988 222.578c-46.19 30.238-64.371 91.02-64.371 91.02s56.708 11.758 102.899-18.48c46.191-30.237 64.372-91.019 64.372-91.019s-56.709-11.758-102.9 18.479Z" fill="#3D563E"/><path d="M301.756 241.069c-25.863 51.915-80.048 73.779-80.048 73.779s-12.251-62.305 13.612-114.22 80.047-73.78 80.047-73.78 12.252 62.306-13.611 114.221Z" fill="#434711"/><path d="M207.851 98.8884c-5.439-5.4427-6.2-14.5892-1.752-21.04-.284.2946-.562.6005-.827.9257-5.225 6.3936-4.776 16.2629 1.002 22.0439 5.779 5.781 14.698 5.284 19.922-1.1096.266-.3252.513-.6616.75-1.0038-5.354 5.5454-13.655 5.6254-19.095.1838Z" fill="#2E412E"/><path d="M194.848 109.848c16.229 0 29.385-14.5504 29.385-32.4996 0-17.9493-13.156-32.5-29.385-32.5s-29.385 14.5507-29.385 32.5c0 17.9492 13.156 32.4996 29.385 32.4996Z" fill="#2E412E"/><path d="m186.473 118.879.881-2.505-16.036 14.84-19.384 11.949s-9.868-41.629-10.573-42.4c-.705-.7707-13.393-30.0649-19.032-16.1887-5.639 13.8762 10.926 21.9707 10.926 21.9707s.528 50.687 17.446 50.301c16.917-.385 37.887-17.152 38.239-18.694.353-1.542-2.467-19.273-2.467-19.273ZM191.231 110.848c9.738 0 17.632-8.73 17.632-19.4996s-7.894-19.5-17.632-19.5c-9.737 0-17.631 8.7304-17.631 19.5s7.894 19.4996 17.631 19.4996Z" fill="#FFB8B8"/><path d="M194.286 105.598s4.579 6.569 3.17 7.341c-1.409.773-9.509 1.159-14.44 7.728-4.931 6.568 5.987 23.181 5.987 23.181l41.559-30.522-16.905-6.182s-11.622-6.955-11.27-14.2956l-8.101 12.7496Z" fill="#FFB8B8"/><path d="M250.454 315.848h-46.682c-2.644-21.337-3.867-40.891-3.867-40.891s-.682 19.669-2.497 40.891h-59.975c8.502-62.84 48.805-130.984 48.805-130.984s.351-9.283 1.403-10.831c1.052-1.543-5.957-1.93-9.113-13.529-1.924-7.081-.194-11.715 1.45-14.246.565-.912 1.259-1.718 2.057-2.385 0 0 .701-8.116 0-9.277-.09-.152.602-.686 1.881-1.496 1.067-.68 2.54-1.553 4.303-2.557 10.099-5.779 29.646-16.004 36.342-19.487 1.469-.768 2.322-1.208 2.322-1.208l11.914 4.639c9.458 3.478 9.458 25.521 9.458 25.521l-.535.9-14.297 23.9-8.293 13.869c2.104 1.543-2.099 11.213-2.099 11.213s5.989 9.497 10.861 23.994c2.755 8.068 4.633 16.468 5.597 25.024.613 5.545.734 11.143.36 16.715-1.299 18.628 4.473 41.268 10.605 60.225Z" fill="#2E412E"/><path d="M238.656 116.283c-.777-.489-1.707-.569-2.542-.22-.835.349-1.49 1.093-1.79 2.032-1.042 3.208-2.099 9.896-1.723 23.801.693 25.573 1.039 43.009 1.039 43.009v38.747s-15.237 37.196-6.926 37.196c8.312 0 14.199-29.447 14.199-29.447s7.619-44.559 5.194-52.308c0 0 6.836-53.535-7.451-62.81Z" fill="#FFB8B8"/><path d="M189.423 85.8484c8.239 0 14.919-5.1487 14.919-11.5s-6.68-11.5-14.919-11.5-14.919 5.1487-14.919 11.5 6.68 11.5 14.919 11.5ZM213.383 64.8484c7.99 0 14.467-7.1635 14.467-16 0-8.8366-6.477-16-14.467-16-7.989 0-14.466 7.1634-14.466 16 0 8.8365 6.477 16 14.466 16Z" fill="#2E412E"/><path d="M223.329 60.233c-7.521-.0011-13.787-6.2544-14.413-14.3846-.032.4316-.053.8669-.053 1.3077 0 8.6666 6.476 15.6923 14.466 15.6923 7.99 0 14.467-7.0257 14.467-15.6923 0-.4408-.021-.8761-.054-1.3077-.626 8.1302-6.892 14.3835-14.413 14.3846Z" fill="#2E412E"/><path d="M208.31 87.8668c.659-.174.902-1.665.542-3.3302s-1.185-2.8741-1.844-2.7001c-.659.174-.901 1.665-.541 3.3302.359 1.6652 1.185 2.8741 1.843 2.7001Z" fill="#FFB8B8"/><path d="M207.958 87.8484c.499 0 .904-.4477.904-1s-.405-1-.904-1-.904.4477-.904 1 .405 1 .904 1Z" fill="#F2F2F2"/><path fill-rule="evenodd" clip-rule="evenodd" d="M36.1667 147.348c0 3.59 2.6313 6.5 5.8771 6.5 3.2444-.004 5.8735-2.911 5.8771-6.5 0-3.589-2.6312-6.5-5.8771-6.5-3.2458 0-5.8771 2.911-5.8771 6.5Zm.9793 0c0-2.991 2.1927-5.416 4.8976-5.416 2.7036.003 4.8945 2.426 4.8976 5.416 0 2.992-2.1928 5.417-4.8976 5.417-2.7049 0-4.8976-2.425-4.8976-5.417ZM274.867 107.848h12.658V93.8484h-12.658v13.9996Zm11.684-1.077H275.84V94.9253h10.711v11.8457Z" fill="#3D563E"/><path d="M394.289 180.381c-21.972.111-39.856.467-39.856.467s21.258-30.905 39.776-19.455C412.728 172.843 434 180.446 434 180.446s-17.739-.176-39.711-.065ZM326.477 75.381c-21.972.1111-39.856.4674-39.856.4674s21.258-30.9058 39.776-19.4554c18.518 11.4504 39.791 19.0529 39.791 19.0529s-17.74-.1761-39.711-.0649ZM118.769 88.9813 68.0261 60.0095c-3.4651-1.9785-4.8297-6.7013-3.0479-10.5488l11.9544-25.8132c.3508-.7575.9667-1.3217 1.7032-1.5601L118.631 9.1388c3.321-1.07504 6.818.922 7.963 4.5462l13.14 41.6209c.664 2.1012.52 4.4129-.397 6.3931L128.27 85.5971c-.856 1.8476-2.338 3.2421-4.119 3.8768-1.782.6347-3.718.4575-5.382-.4926Z" fill="#F2F2F2"/><path opacity=".1" d="M120.568 79.4244 69.4452 55.1833c-1.6472-.9408-.1027.5053.7443-1.3243l6.4265-29.0106 62.626 35.7674-15.833 21.7434c-.847 1.8296-1.194-1.994-2.841-2.9348Z" fill="#000"/><path d="M78.4332 62.7924c-3.9299-2.235-5.5706-7.3701-3.6645-11.4697l17.082-36.7409c1.906-4.0995 6.637-5.61104 10.5673-3.376l32.411 18.4328c3.93 2.235 5.571 7.3702 3.665 11.4697l-17.082 36.7409c-1.906 4.0996-6.637 5.6111-10.567 3.3761L78.4332 62.7924Z" fill="#434711"/><path opacity=".1" d="m131.104 56.4339-13.148 28.4145-46.5268-26.5861 13.1484-28.4139 17.4814 25.7877 29.045.7978Z" fill="#000"/><path d="M101.494 57.5052 78.9226 24.4506c-.2838-.4157-.7414-.641-1.2113-.5967-.47.0443-.8862.3522-1.1019.8149L63.7652 52.2244c-.5189 1.1134-.6157 2.4086-.269 3.6007.3466 1.1921 1.1084 2.1834 2.1176 2.7559l55.9612 31.7449c1.009.5725 2.183.6793 3.263.2968 1.081-.3824 1.98-1.2228 2.499-2.3361l12.624-27.0835c.263-.5647.244-1.239-.049-1.7851-.294-.546-.822-.8871-1.397-.9028l-37.021-1.01ZM97.1188 14.1805l13.0442 7.4185-.949 2.0401-13.0438-7.4184.9486-2.0402ZM92.6093 21.0131l38.7377 22.0304-.542 1.1658-38.7378-22.0304.5421-1.1658ZM90.7799 24.9476l38.7371 22.0305-.542 1.1658-38.7371-22.0305.542-1.1658Z" fill="#F2F2F2"/><path d="m88.9506 28.8822 38.7374 22.0305-.542 1.1658L88.4085 30.048l.5421-1.1658Z" fill="#F2F2F2"/><path d="M102.237 12.1302c1.537-3.3058.364-7.36115-2.6191-9.05792-2.9836-1.69677-6.6481-.39244-8.1851 2.91332-1.5369 3.30575-.3643 7.3611 2.6192 9.0579 2.9836 1.6967 6.648.3924 8.185-2.9133Z" fill="#fff"/><path fill-rule="evenodd" clip-rule="evenodd" d="M90.315 5.19079c1.8273-3.92841 6.1896-5.475459 9.743-3.45543 3.544 2.02908 4.941 6.84108 3.126 10.77064-1.827 3.9284-6.1894 5.4754-9.7432 3.4554-3.5537-2.02-4.9532-6.8422-3.1258-10.77061Zm1.7475 1.17922 1.602 5.51999 8.9955-3.18448-.449-1.54828-7.5937 2.6929-1.1542-3.97685-1.4006.49672Z" fill="#57B894"/></g><defs><clipPath id="a"><path fill="#fff" d="M0 0h434v315.848H0z"/></clipPath></defs></svg>

<svg viewBox="0 0 434 316" fill="none" xmlns="http://www.w3.org/2000/svg">
<g clip-path="url(#clip0_2025_170)">
<path d="M89.5852 137.381C67.6135 137.492 49.7294 137.848 49.7294 137.848C49.7294 137.848 70.9875 106.943 89.5055 118.393C108.024 129.843 129.296 137.446 129.296 137.446C129.296 137.446 111.557 137.27 89.5852 137.381Z" fill="#F2F2F2"/>
<path d="M335.446 146.848C337.943 146.848 339.967 144.61 339.967 141.848C339.967 139.087 337.943 136.848 335.446 136.848C332.949 136.848 330.925 139.087 330.925 141.848C330.925 144.61 332.949 146.848 335.446 146.848Z" fill="#FF6584"/>
<path d="M301.982 221.163L336.329 177.542L337.389 178.563L303.042 222.184L301.982 221.163Z" fill="#3D563E"/>
<path d="M337.254 185.848C341.249 185.848 344.487 182.267 344.487 177.848C344.487 173.43 341.249 169.848 337.254 169.848C333.259 169.848 330.021 173.43 330.021 177.848C330.021 182.267 333.259 185.848 337.254 185.848Z" fill="#3D563E"/>
<path d="M315.813 204.848C315.813 204.848 329.7 185.276 311.938 171.848L315.813 204.848Z" fill="#3D563E"/>
<path d="M85.5143 239.253C110.965 291.444 164.98 313.848 164.98 313.848C164.98 313.848 177.732 251.635 152.282 199.444C126.831 147.253 72.8154 124.848 72.8154 124.848C72.8154 124.848 60.0636 187.062 85.5143 239.253Z" fill="#3D563E"/>
<path d="M102.733 222.308C148.673 252.965 166.367 313.857 166.367 313.857C166.367 313.857 109.575 325.045 63.6342 294.388C17.6933 263.732 0 202.84 0 202.84C0 202.84 56.7916 191.652 102.733 222.308Z" fill="#434711"/>
<path d="M284.988 222.578C238.798 252.816 220.617 313.598 220.617 313.598C220.617 313.598 277.325 325.356 323.516 295.118C369.707 264.881 387.888 204.099 387.888 204.099C387.888 204.099 331.179 192.341 284.988 222.578Z" fill="#3D563E"/>
<path d="M301.756 241.069C275.893 292.984 221.708 314.848 221.708 314.848C221.708 314.848 209.457 252.543 235.32 200.628C261.183 148.713 315.367 126.848 315.367 126.848C315.367 126.848 327.619 189.154 301.756 241.069Z" fill="#434711"/>
<path d="M207.851 98.8884C202.412 93.4457 201.651 84.2992 206.099 77.8484C205.815 78.143 205.537 78.4489 205.272 78.7741C200.047 85.1677 200.496 95.037 206.274 100.818C212.053 106.599 220.972 106.102 226.196 99.7084C226.462 99.3832 226.709 99.0468 226.946 98.7046C221.592 104.25 213.291 104.33 207.851 98.8884Z" fill="#2E412E"/>
<path d="M194.848 109.848C211.077 109.848 224.233 95.2976 224.233 77.3484C224.233 59.3991 211.077 44.8484 194.848 44.8484C178.619 44.8484 165.463 59.3991 165.463 77.3484C165.463 95.2976 178.619 109.848 194.848 109.848Z" fill="#2E412E"/>
<path d="M186.473 118.879L187.354 116.374L171.318 131.214L151.934 143.163C151.934 143.163 142.066 101.534 141.361 100.763C140.656 99.9923 127.968 70.6981 122.329 84.5743C116.69 98.4505 133.255 106.545 133.255 106.545C133.255 106.545 133.783 157.232 150.701 156.846C167.618 156.461 188.588 139.694 188.94 138.152C189.293 136.61 186.473 118.879 186.473 118.879Z" fill="#FFB8B8"/>
<path d="M191.231 110.848C200.969 110.848 208.863 102.118 208.863 91.3484C208.863 80.5788 200.969 71.8484 191.231 71.8484C181.494 71.8484 173.6 80.5788 173.6 91.3484C173.6 102.118 181.494 110.848 191.231 110.848Z" fill="#FFB8B8"/>
<path d="M194.286 105.598C194.286 105.598 198.865 112.167 197.456 112.939C196.047 113.712 187.947 114.098 183.016 120.667C178.085 127.235 189.003 143.848 189.003 143.848L230.562 113.326L213.657 107.144C213.657 107.144 202.035 100.189 202.387 92.8484L194.286 105.598Z" fill="#FFB8B8"/>
<path d="M250.454 315.848H203.772C201.128 294.511 199.905 274.957 199.905 274.957C199.905 274.957 199.223 294.626 197.408 315.848H137.433C145.935 253.008 186.238 184.864 186.238 184.864C186.238 184.864 186.589 175.581 187.641 174.033C188.693 172.49 181.684 172.103 178.528 160.504C176.604 153.423 178.334 148.789 179.978 146.258C180.543 145.346 181.237 144.54 182.035 143.873C182.035 143.873 182.736 135.757 182.035 134.596C181.945 134.444 182.637 133.91 183.916 133.1C184.983 132.42 186.456 131.547 188.219 130.543C198.318 124.764 217.865 114.539 224.561 111.056C226.03 110.288 226.883 109.848 226.883 109.848L238.797 114.487C248.255 117.965 248.255 140.008 248.255 140.008L247.72 140.908L233.423 164.808L225.13 178.677C227.234 180.22 223.031 189.89 223.031 189.89C223.031 189.89 229.02 199.387 233.892 213.884C236.647 221.952 238.525 230.352 239.489 238.908C240.102 244.453 240.223 250.051 239.849 255.623C238.55 274.251 244.322 296.891 250.454 315.848Z" fill="#2E412E"/>
<path d="M238.656 116.283C237.879 115.794 236.949 115.714 236.114 116.063C235.279 116.412 234.624 117.156 234.324 118.095C233.282 121.303 232.225 127.991 232.601 141.896C233.294 167.469 233.64 184.905 233.64 184.905V223.652C233.64 223.652 218.403 260.848 226.714 260.848C235.026 260.848 240.913 231.401 240.913 231.401C240.913 231.401 248.532 186.842 246.107 179.093C246.107 179.093 252.943 125.558 238.656 116.283Z" fill="#FFB8B8"/>
<path d="M189.423 85.8484C197.662 85.8484 204.342 80.6997 204.342 74.3484C204.342 67.9971 197.662 62.8484 189.423 62.8484C181.184 62.8484 174.504 67.9971 174.504 74.3484C174.504 80.6997 181.184 85.8484 189.423 85.8484Z" fill="#2E412E"/>
<path d="M213.383 64.8484C221.373 64.8484 227.85 57.6849 227.85 48.8484C227.85 40.0118 221.373 32.8484 213.383 32.8484C205.394 32.8484 198.917 40.0118 198.917 48.8484C198.917 57.6849 205.394 64.8484 213.383 64.8484Z" fill="#2E412E"/>
<path d="M223.329 60.233C215.808 60.2319 209.542 53.9786 208.916 45.8484C208.884 46.28 208.863 46.7153 208.863 47.1561C208.863 55.8227 215.339 62.8484 223.329 62.8484C231.319 62.8484 237.796 55.8227 237.796 47.1561C237.796 46.7153 237.775 46.28 237.742 45.8484C237.116 53.9786 230.85 60.2319 223.329 60.233Z" fill="#2E412E"/>
<path d="M208.31 87.8668C208.969 87.6928 209.212 86.2018 208.852 84.5366C208.492 82.8714 207.667 81.6625 207.008 81.8365C206.349 82.0105 206.107 83.5015 206.467 85.1667C206.826 86.8319 207.652 88.0408 208.31 87.8668Z" fill="#FFB8B8"/>
<path d="M207.958 87.8484C208.457 87.8484 208.862 87.4007 208.862 86.8484C208.862 86.2961 208.457 85.8484 207.958 85.8484C207.459 85.8484 207.054 86.2961 207.054 86.8484C207.054 87.4007 207.459 87.8484 207.958 87.8484Z" fill="#F2F2F2"/>
<path fill-rule="evenodd" clip-rule="evenodd" d="M36.1667 147.348C36.1667 150.938 38.798 153.848 42.0438 153.848C45.2882 153.844 47.9173 150.937 47.9209 147.348C47.9209 143.759 45.2897 140.848 42.0438 140.848C38.798 140.848 36.1667 143.759 36.1667 147.348ZM37.146 147.348C37.146 144.357 39.3387 141.932 42.0436 141.932C44.7472 141.935 46.9381 144.358 46.9412 147.348C46.9412 150.34 44.7484 152.765 42.0436 152.765C39.3387 152.765 37.146 150.34 37.146 147.348Z" fill="#3D563E"/>
<path fill-rule="evenodd" clip-rule="evenodd" d="M274.867 107.848H287.525V93.8484H274.867V107.848ZM286.551 106.771H275.84V94.9253H286.551V106.771Z" fill="#3D563E"/>
<path d="M394.289 180.381C372.317 180.492 354.433 180.848 354.433 180.848C354.433 180.848 375.691 149.943 394.209 161.393C412.728 172.843 434 180.446 434 180.446C434 180.446 416.261 180.27 394.289 180.381Z" fill="#F2F2F2"/>
<path d="M326.477 75.381C304.505 75.4921 286.621 75.8484 286.621 75.8484C286.621 75.8484 307.879 44.9426 326.397 56.393C344.915 67.8434 366.188 75.4459 366.188 75.4459C366.188 75.4459 348.448 75.2698 326.477 75.381Z" fill="#F2F2F2"/>
<path d="M118.769 88.9813L68.0261 60.0095C64.561 58.031 63.1964 53.3082 64.9782 49.4607L76.9326 23.6475C77.2834 22.89 77.8993 22.3258 78.6358 22.0874L118.631 9.1388C121.952 8.06376 125.449 10.0608 126.594 13.685L139.734 55.3059C140.398 57.4071 140.254 59.7188 139.337 61.699L128.27 85.5971C127.414 87.4447 125.932 88.8392 124.151 89.4739C122.369 90.1086 120.433 89.9314 118.769 88.9813Z" fill="#F2F2F2"/>
<path opacity="0.1" d="M120.568 79.4244L69.4452 55.1833C67.798 54.2425 69.3425 55.6886 70.1895 53.859L76.616 24.8484L139.242 60.6158L123.409 82.3592C122.562 84.1888 122.215 80.3652 120.568 79.4244Z" fill="black"/>
<path d="M78.4332 62.7924C74.5033 60.5574 72.8626 55.4223 74.7687 51.3227L91.8507 14.5818C93.7567 10.4823 98.4877 8.97076 102.418 11.2058L134.829 29.6386C138.759 31.8736 140.4 37.0088 138.494 41.1083L121.412 77.8492C119.506 81.9488 114.775 83.4603 110.845 81.2253L78.4332 62.7924Z" fill="#434711"/>
<path opacity="0.1" d="M131.104 56.4339L117.956 84.8484L71.4292 58.2623L84.5776 29.8484L102.059 55.6361L131.104 56.4339Z" fill="black"/>
<path d="M101.494 57.5052L78.9226 24.4506C78.6388 24.0349 78.1812 23.8096 77.7113 23.8539C77.2413 23.8982 76.8251 24.2061 76.6094 24.6688L63.7652 52.2244C63.2463 53.3378 63.1495 54.633 63.4962 55.8251C63.8428 57.0172 64.6046 58.0085 65.6138 58.581L121.575 90.3259C122.584 90.8984 123.758 91.0052 124.838 90.6227C125.919 90.2403 126.818 89.3999 127.337 88.2866L139.961 61.2031C140.224 60.6384 140.205 59.9641 139.912 59.418C139.618 58.872 139.09 58.5309 138.515 58.5152L101.494 57.5052Z" fill="#F2F2F2"/>
<path d="M97.1188 14.1805L110.163 21.599L109.214 23.6391L96.1702 16.2207L97.1188 14.1805Z" fill="#F2F2F2"/>
<path d="M92.6093 21.0131L131.347 43.0435L130.805 44.2093L92.0672 22.1789L92.6093 21.0131Z" fill="#F2F2F2"/>
<path d="M90.7799 24.9476L129.517 46.9781L128.975 48.1439L90.2379 26.1134L90.7799 24.9476Z" fill="#F2F2F2"/>
<path d="M88.9506 28.8822L127.688 50.9127L127.146 52.0785L88.4085 30.048L88.9506 28.8822Z" fill="#F2F2F2"/>
<path d="M102.237 12.1302C103.774 8.8244 102.601 4.76905 99.6179 3.07228C96.6343 1.37551 92.9698 2.67984 91.4328 5.9856C89.8959 9.29135 91.0685 13.3467 94.052 15.0435C97.0356 16.7402 100.7 15.4359 102.237 12.1302Z" fill="white"/>
<path fill-rule="evenodd" clip-rule="evenodd" d="M90.315 5.19079C92.1423 1.26238 96.5046 -0.284669 100.058 1.73536C103.602 3.76444 104.999 8.57644 103.184 12.506C101.357 16.4344 96.9946 17.9814 93.4408 15.9614C89.8871 13.9414 88.4876 9.1192 90.315 5.19079ZM92.0625 6.37001L93.6645 11.89L102.66 8.70552L102.211 7.15724L94.6173 9.85014L93.4631 5.87329L92.0625 6.37001Z" fill="#57B894"/>
</g>
<defs>
<clipPath id="clip0_2025_170">
<rect width="434" height="315.848" fill="white"/>
</clipPath>
</defs>
</svg>
